X: 876
T: The cup of tea
C: anon.
O: Ireland
B: Francis O'Neill: "The Dance Music of Ireland" (1907) no. 792
R: Reel
Z: Transcribed by Frank Nordberg - http://www.musicaviva.com
F: http://www.musicaviva.com/abc/tunes/ireland/oneill-1001/oneill-1001-079
2.abc
M: C|
L: 1/8
K: D
A|B(AGF) GEE(F|GE)BE GEEA|B(AGF) GEE(G|FD)AG FDDA|B(AGF) GEE(F|GE)BE GEEA
|B(AGF) GAB(c|d)BAG FDD||
A|d2(eg) fde(c|d2)eg f(BBc)|d2(eg) fde(c|d)BAG FDDA|d2(eg) fde(c|d)faf g2
(fg)|afg(e fd)e(c|d)BAG FDD||
G|F(AdA) FABA|F(AdA) (FE)(EG)|F(GdA) FAB(c|d)BAG (FD)DG|F(AdA) FAB(A|F)Ad
A (FE)(Ee)|f2(ec) dBA(F|G)BAG FDD|]
W:
W:
W: From Musica Viva - http://www.musicaviva.com
W: the Internet center for free sheet music downloads.


